src/images/avatars/avatar-3.svg

<svg fill="none" height="78" viewBox="0 0 50 78" width="50" xmlns="http://www.w3.org/2000/svg"><path d="m2.39394 51.8c-1.800004-9.1-6.39999-50.10002 22.70006-50.10002 24.4 0 24 32.10002 22.9 43.30002-.9 9.3-3.9 20.9-5.4 20.6-3.8-.8-10.5001-3.2-17.7001-2.6-8.8.7-14.89996 3-17.99996 3.7-1.2.3-2.5-4.9-4.5-14.9z" fill="#fd8f63" stroke="#4d4d4d" stroke-linejoin="round" stroke-miterlimit="10" stroke-width="2"/><path d="m28.6941 60.7v-14.5h-7.6v14.5c0 1.1-.9 2-2 2h-1.7001c0 3.4 3.3 6.1 7.4 6.1s7.4001-2.7 7.4001-6.1h-1.6c-1 0-1.9-.9-1.9-2z" fill="#fcc5af" stroke="#4d4d4d" stroke-linejoin="round" stroke-miterlimit="10" stroke-width="2"/><path d="m28.6937 59.1c-1.7 0-7.4999-3.1-7.4999-3.8.1-1.5-.1-.9-.1-.9l7.5999.2s.2 4.4 0 4.5z" fill="#f99f7a" opacity=".5"/><g stroke="#4d4d4d" stroke-linejoin="round" stroke-miterlimit="10" stroke-width="2"><path d="m28.6941 60.7v-14.5h-7.6v14.5c0 1.1-.9 2-2 2h-1.7001c0 3.4 3.3 6.1 7.4 6.1s7.4001-2.7 7.4001-6.1h-1.6c-1 0-1.9-.9-1.9-2z"/><path d="m8.79402 37.7c2.15388 0 3.89998-1.7461 3.89998-3.9s-1.7461-3.9-3.89998-3.9c-2.1539 0-3.89998 1.7461-3.89998 3.9s1.74608 3.9 3.89998 3.9z" fill="#fcc5af"/><path d="m40.9938 37.7c2.1539 0 3.9-1.7461 3.9-3.9s-1.7461-3.9-3.9-3.9c-2.154 0-3.9 1.7461-3.9 3.9s1.746 3.9 3.9 3.9z" fill="#fcc5af"/><path d="m8.59375 36.1c.1 9.3 6.99995 18.9 15.89995 19.1 9.2.3 16.7-8.2 16.7-18.7l-.8-6.6c-5.8-.7-11.6-9.9-11.5-12.5 0 0-16.4 9.3-19.59997 10.8-.4 2.1-.69998 4.8-.69998 7.9z" fill="#fcc5af"/></g><path d="m17.9941 35.6c.8285 0 1.5-.6715 1.5-1.5 0-.8284-.6715-1.5-1.5-1.5-.8284 0-1.5.6716-1.5 1.5 0 .8285.6716 1.5 1.5 1.5z" fill="#4d4d4d"/><path d="m31.7941 35.6c.8284 0 1.5-.6715 1.5-1.5 0-.8284-.6716-1.5-1.5-1.5-.8285 0-1.5.6716-1.5 1.5 0 .8285.6715 1.5 1.5 1.5z" fill="#4d4d4d"/><g fill="#fd8f63" opacity=".8"><path d="m12.6938 42c.2762 0 .5-.2239.5-.5s-.2238-.5-.5-.5c-.2761 0-.5.2239-.5.5s.2239.5.5.5z" opacity=".8"/><path d="m13.1938 35.7c.2762 0 .5-.2238.5-.5 0-.2761-.2238-.5-.5-.5-.2761 0-.5.2239-.5.5 0 .2762.2239.5.5.5z" opacity=".8"/><path d="m17.0937 41.5c.2762 0 .5-.2239.5-.5s-.2238-.5-.5-.5c-.2761 0-.4999.2239-.4999.5s.2238.5.4999.5z" opacity=".8"/><path d="m17.9937 38c.2761 0 .5-.2239.5-.5s-.2239-.5-.5-.5c-.2762 0-.5.2239-.5.5s.2238.5.5.5z" opacity=".8"/><path d="m20.3941 40.3c.2761 0 .5-.2238.5-.5 0-.2761-.2239-.5-.5-.5-.2762 0-.5001.2239-.5001.5 0 .2762.2239.5.5001.5z" opacity=".8"/><path d="m14.6939 38.9001c.2761 0 .5-.2239.5-.5001 0-.2761-.2239-.5-.5-.5-.2762 0-.5001.2239-.5001.5 0 .2762.2239.5001.5001.5001z" opacity=".8"/></g><g fill="#fd8f63" opacity=".8"><path d="m37.7939 42c.2762 0 .5-.2239.5-.5s-.2238-.5-.5-.5c-.2761 0-.5.2239-.5.5s.2239.5.5.5z" opacity=".8"/><path d="m37.2937 35.7c.2762 0 .5-.2238.5-.5 0-.2761-.2238-.5-.5-.5-.2761 0-.5.2239-.5.5 0 .2762.2239.5.5.5z" opacity=".8"/><path d="m33.4937 41.5c.2761 0 .5-.2239.5-.5s-.2239-.5-.5-.5c-.2762 0-.5.2239-.5.5s.2238.5.5.5z" opacity=".8"/><path d="m32.4936 38c.2761 0 .5-.2239.5-.5s-.2239-.5-.5-.5-.4999.2239-.4999.5.2238.5.4999.5z" opacity=".8"/><path d="m30.0938 40.3c.2761 0 .5-.2238.5-.5 0-.2761-.2239-.5-.5-.5-.2762 0-.5.2239-.5.5 0 .2762.2238.5.5.5z" opacity=".8"/><path d="m35.794 38.9001c.2761 0 .5-.2239.5-.5001 0-.2761-.2239-.5-.5-.5-.2762 0-.5001.2239-.5001.5 0 .2762.2239.5001.5001.5001z" opacity=".8"/></g><path d="m23.394 36.4v1.7c0 .7.6001 1.3 1.3001 1.3h1.6" stroke="#4d4d4d" stroke-linecap="round" stroke-linejoin="round" stroke-miterlimit="10" stroke-width="2"/><path d="m29.994 14.6c-.9 3.5-2.8 6.2-9.5 9.9-7.7 4.2-15.59996 4.3-15.59996 4.3" fill="#fd8f63"/><path d="m29.994 14.6c-.9 3.5-2.8 6.2-9.5 9.9-7.7 4.2-15.59996 4.3-15.59996 4.3" stroke="#4d4d4d" stroke-linecap="round" stroke-linejoin="round" stroke-miterlimit="10" stroke-width="2"/><path d="m23.0938 46.8c1.2.4 2.4999.4 3.6999 0" stroke="#4d4d4d" stroke-linecap="round" stroke-linejoin="round" stroke-miterlimit="10" stroke-width="2"/><path d="m45.1942 67.4c0-4.4-3.6-8-8-8h-7.2001s-1.3 3.1-5.1 3.1-5.4-3.1-5.4-3.1h-7c-4.39996 0-7.99996 3.6-7.99996 8v1.3c5.3 4.9 12.40006 7.8 20.20006 7.8 7.9 0 14.9999-3 20.3999-8v-1.1z" fill="#5c5c5c"/><path d="m45.1942 67.4c0-4.4-3.6-8-8-8h-7.2001s-1.3 3.1-5.1 3.1-5.4-3.1-5.4-3.1h-7c-4.39996 0-7.99996 3.6-7.99996 8v1.3c5.3 4.9 12.40006 7.8 20.20006 7.8 7.9 0 14.9999-3 20.3999-8v-1.1z" stroke="#4d4d4d" stroke-linejoin="round" stroke-miterlimit="10" stroke-width="2"/><path d="m10.9941 68.4v4.3" stroke="#4d4d4d" stroke-linecap="round" stroke-linejoin="round" stroke-miterlimit="10" stroke-width="2"/><path d="m38.894 68.4v4.3" stroke="#4d4d4d" stroke-linecap="round" stroke-linejoin="round" stroke-miterlimit="10" stroke-width="2"/></svg>

<svg width="50" height="78" viewBox="0 0 50 78" fill="none" xmlns="http://www.w3.org/2000/svg">
<path d="M2.39394 51.8C0.593936 42.7 -4.00605 1.69998 25.094 1.69998C49.494 1.69998 49.094 33.8 47.994 45C47.094 54.3 44.094 65.9 42.594 65.6C38.794 64.8 32.0939 62.4 24.8939 63C16.0939 63.7 9.99394 66 6.89394 66.7C5.69394 67 4.39394 61.8 2.39394 51.8Z" fill="#FD8F63" stroke="#4D4D4D" stroke-width="2" stroke-miterlimit="10" stroke-linejoin="round"/>
<path d="M28.6941 60.7V46.2H21.0941V60.7C21.0941 61.8 20.1941 62.7 19.0941 62.7H17.394C17.394 66.1 20.694 68.8 24.794 68.8C28.894 68.8 32.1941 66.1 32.1941 62.7H30.5941C29.5941 62.7 28.6941 61.8 28.6941 60.7Z" fill="#FCC5AF" stroke="#4D4D4D" stroke-width="2" stroke-miterlimit="10" stroke-linejoin="round"/>
<path opacity="0.5" d="M28.6937 59.1C26.9937 59.1 21.1938 56 21.1938 55.3C21.2938 53.8 21.0938 54.4 21.0938 54.4L28.6937 54.6C28.6937 54.6 28.8937 59 28.6937 59.1Z" fill="#F99F7A"/>
<path d="M28.6941 60.7V46.2H21.0941V60.7C21.0941 61.8 20.1941 62.7 19.0941 62.7H17.394C17.394 66.1 20.694 68.8 24.794 68.8C28.894 68.8 32.1941 66.1 32.1941 62.7H30.5941C29.5941 62.7 28.6941 61.8 28.6941 60.7Z" stroke="#4D4D4D" stroke-width="2" stroke-miterlimit="10" stroke-linejoin="round"/>
<path d="M8.79402 37.7C10.9479 37.7 12.694 35.9539 12.694 33.8C12.694 31.6461 10.9479 29.9 8.79402 29.9C6.64012 29.9 4.89404 31.6461 4.89404 33.8C4.89404 35.9539 6.64012 37.7 8.79402 37.7Z" fill="#FCC5AF" stroke="#4D4D4D" stroke-width="2" stroke-miterlimit="10" stroke-linejoin="round"/>
<path d="M40.9938 37.7C43.1477 37.7 44.8938 35.9539 44.8938 33.8C44.8938 31.6461 43.1477 29.9 40.9938 29.9C38.8398 29.9 37.0938 31.6461 37.0938 33.8C37.0938 35.9539 38.8398 37.7 40.9938 37.7Z" fill="#FCC5AF" stroke="#4D4D4D" stroke-width="2" stroke-miterlimit="10" stroke-linejoin="round"/>
<path d="M8.59375 36.1C8.69375 45.4 15.5937 55 24.4937 55.2C33.6937 55.5 41.1937 47 41.1937 36.5L40.3937 29.9C34.5937 29.2 28.7937 20 28.8937 17.4C28.8937 17.4 12.4937 26.7 9.29373 28.2C8.89373 30.3 8.59375 33 8.59375 36.1Z" fill="#FCC5AF" stroke="#4D4D4D" stroke-width="2" stroke-miterlimit="10" stroke-linejoin="round"/>
<path d="M17.9941 35.6C18.8226 35.6 19.4941 34.9285 19.4941 34.1C19.4941 33.2716 18.8226 32.6 17.9941 32.6C17.1657 32.6 16.4941 33.2716 16.4941 34.1C16.4941 34.9285 17.1657 35.6 17.9941 35.6Z" fill="#4D4D4D"/>
<path d="M31.7941 35.6C32.6225 35.6 33.2941 34.9285 33.2941 34.1C33.2941 33.2716 32.6225 32.6 31.7941 32.6C30.9656 32.6 30.2941 33.2716 30.2941 34.1C30.2941 34.9285 30.9656 35.6 31.7941 35.6Z" fill="#4D4D4D"/>
<g opacity="0.8">
<path opacity="0.8" d="M12.6938 42C12.97 42 13.1938 41.7761 13.1938 41.5C13.1938 41.2239 12.97 41 12.6938 41C12.4177 41 12.1938 41.2239 12.1938 41.5C12.1938 41.7761 12.4177 42 12.6938 42Z" fill="#FD8F63"/>
<path opacity="0.8" d="M13.1938 35.7C13.47 35.7 13.6938 35.4762 13.6938 35.2C13.6938 34.9239 13.47 34.7 13.1938 34.7C12.9177 34.7 12.6938 34.9239 12.6938 35.2C12.6938 35.4762 12.9177 35.7 13.1938 35.7Z" fill="#FD8F63"/>
<path opacity="0.8" d="M17.0937 41.5C17.3699 41.5 17.5937 41.2761 17.5937 41C17.5937 40.7239 17.3699 40.5 17.0937 40.5C16.8176 40.5 16.5938 40.7239 16.5938 41C16.5938 41.2761 16.8176 41.5 17.0937 41.5Z" fill="#FD8F63"/>
<path opacity="0.8" d="M17.9937 38C18.2698 38 18.4937 37.7761 18.4937 37.5C18.4937 37.2239 18.2698 37 17.9937 37C17.7175 37 17.4937 37.2239 17.4937 37.5C17.4937 37.7761 17.7175 38 17.9937 38Z" fill="#FD8F63"/>
<path opacity="0.8" d="M20.3941 40.3C20.6702 40.3 20.8941 40.0762 20.8941 39.8C20.8941 39.5239 20.6702 39.3 20.3941 39.3C20.1179 39.3 19.894 39.5239 19.894 39.8C19.894 40.0762 20.1179 40.3 20.3941 40.3Z" fill="#FD8F63"/>
<path opacity="0.8" d="M14.6939 38.9001C14.97 38.9001 15.1939 38.6762 15.1939 38.4C15.1939 38.1239 14.97 37.9 14.6939 37.9C14.4177 37.9 14.1938 38.1239 14.1938 38.4C14.1938 38.6762 14.4177 38.9001 14.6939 38.9001Z" fill="#FD8F63"/>
</g>
<g opacity="0.8">
<path opacity="0.8" d="M37.7939 42C38.0701 42 38.2939 41.7761 38.2939 41.5C38.2939 41.2239 38.0701 41 37.7939 41C37.5178 41 37.2939 41.2239 37.2939 41.5C37.2939 41.7761 37.5178 42 37.7939 42Z" fill="#FD8F63"/>
<path opacity="0.8" d="M37.2937 35.7C37.5699 35.7 37.7937 35.4762 37.7937 35.2C37.7937 34.9239 37.5699 34.7 37.2937 34.7C37.0176 34.7 36.7937 34.9239 36.7937 35.2C36.7937 35.4762 37.0176 35.7 37.2937 35.7Z" fill="#FD8F63"/>
<path opacity="0.8" d="M33.4937 41.5C33.7698 41.5 33.9937 41.2761 33.9937 41C33.9937 40.7239 33.7698 40.5 33.4937 40.5C33.2175 40.5 32.9937 40.7239 32.9937 41C32.9937 41.2761 33.2175 41.5 33.4937 41.5Z" fill="#FD8F63"/>
<path opacity="0.8" d="M32.4936 38C32.7697 38 32.9936 37.7761 32.9936 37.5C32.9936 37.2239 32.7697 37 32.4936 37C32.2175 37 31.9937 37.2239 31.9937 37.5C31.9937 37.7761 32.2175 38 32.4936 38Z" fill="#FD8F63"/>
<path opacity="0.8" d="M30.0938 40.3C30.3699 40.3 30.5938 40.0762 30.5938 39.8C30.5938 39.5239 30.3699 39.3 30.0938 39.3C29.8176 39.3 29.5938 39.5239 29.5938 39.8C29.5938 40.0762 29.8176 40.3 30.0938 40.3Z" fill="#FD8F63"/>
<path opacity="0.8" d="M35.794 38.9001C36.0701 38.9001 36.294 38.6762 36.294 38.4C36.294 38.1239 36.0701 37.9 35.794 37.9C35.5178 37.9 35.2939 38.1239 35.2939 38.4C35.2939 38.6762 35.5178 38.9001 35.794 38.9001Z" fill="#FD8F63"/>
</g>
<path d="M23.394 36.4V38.1C23.394 38.8 23.9941 39.4 24.6941 39.4H26.2941" stroke="#4D4D4D" stroke-width="2" stroke-miterlimit="10" stroke-linecap="round" stroke-linejoin="round"/>
<path d="M29.994 14.6C29.094 18.1 27.194 20.8 20.494 24.5C12.794 28.7 4.89404 28.8 4.89404 28.8" fill="#FD8F63"/>
<path d="M29.994 14.6C29.094 18.1 27.194 20.8 20.494 24.5C12.794 28.7 4.89404 28.8 4.89404 28.8" stroke="#4D4D4D" stroke-width="2" stroke-miterlimit="10" stroke-linecap="round" stroke-linejoin="round"/>
<path d="M23.0938 46.8C24.2938 47.2 25.5937 47.2 26.7937 46.8" stroke="#4D4D4D" stroke-width="2" stroke-miterlimit="10" stroke-linecap="round" stroke-linejoin="round"/>
<path d="M45.1942 67.4C45.1942 63 41.5942 59.4 37.1942 59.4H29.9941C29.9941 59.4 28.6941 62.5 24.8941 62.5C21.0941 62.5 19.4941 59.4 19.4941 59.4H12.4941C8.09414 59.4 4.49414 63 4.49414 67.4V68.7C9.79414 73.6 16.8942 76.5 24.6942 76.5C32.5942 76.5 39.6941 73.5 45.0941 68.5V67.4H45.1942Z" fill="#5C5C5C"/>
<path d="M45.1942 67.4C45.1942 63 41.5942 59.4 37.1942 59.4H29.9941C29.9941 59.4 28.6941 62.5 24.8941 62.5C21.0941 62.5 19.4941 59.4 19.4941 59.4H12.4941C8.09414 59.4 4.49414 63 4.49414 67.4V68.7C9.79414 73.6 16.8942 76.5 24.6942 76.5C32.5942 76.5 39.6941 73.5 45.0941 68.5V67.4H45.1942Z" stroke="#4D4D4D" stroke-width="2" stroke-miterlimit="10" stroke-linejoin="round"/>
<path d="M10.9941 68.4V72.7" stroke="#4D4D4D" stroke-width="2" stroke-miterlimit="10" stroke-linecap="round" stroke-linejoin="round"/>
<path d="M38.894 68.4V72.7" stroke="#4D4D4D" stroke-width="2" stroke-miterlimit="10" stroke-linecap="round" stroke-linejoin="round"/>
</svg>
